src/assets/images/connectors/status.svg

<svg width="100" height="100" viewBox="0 0 100 100" fill="none" xmlns="http://www.w3.org/2000/svg">
<path fill-rule="evenodd" clip-rule="evenodd" d="M49.9471 0C22.362 0 0 22.386 0 50C0 77.6142 22.362 100 49.9471 100C77.5322 100 99.8942 77.6142 99.8942 50C99.8942 22.386 77.5322 0 49.9471 0Z" fill="#4360DF"/>
<path fill-rule="evenodd" clip-rule="evenodd" d="M51.6242 47.8085C54.1322 48.0698 56.6405 48.3311 59.7238 48.1591C68.0782 47.6929 73.1389 43.4005 72.7798 36.984C72.4138 30.456 65.6811 26.434 58.9447 26.81C47.9665 27.4222 39.8936 37.0709 38.9845 48.0987C40.4754 47.7491 42.0447 47.5405 43.5245 47.4578C46.6082 47.286 49.1162 47.5471 51.6242 47.8085ZM30.1034 62.08C30.4498 68.0642 36.8282 71.7511 43.2102 71.4062C53.6105 70.8449 61.2589 62.0005 62.12 51.8913C60.7076 52.212 59.2211 52.4036 57.8189 52.4791C54.8976 52.6369 52.5214 52.3973 50.1451 52.1578C47.7691 51.9182 45.3929 51.6787 42.4716 51.8365C34.5574 52.2638 29.7627 56.1985 30.1034 62.08Z" fill="white"/>
</svg>

<svg xmlns="http://www.w3.org/2000/svg" width="100" height="100" fill="none"><path fill="#4360DF" fill-rule="evenodd" d="M49.947 0C22.362 0 0 22.386 0 50s22.362 50 49.947 50 49.947-22.386 49.947-50S77.532 0 49.947 0" clip-rule="evenodd"/><path fill="#fff" fill-rule="evenodd" d="M51.624 47.809c2.508.26 5.017.522 8.1.35 8.354-.466 13.415-4.758 13.056-11.175-.366-6.528-7.099-10.55-13.835-10.174-10.978.612-19.051 10.26-19.96 21.289a26.7 26.7 0 0 1 4.54-.641c3.083-.172 5.591.09 8.1.35M30.104 62.08c.346 5.984 6.724 9.671 13.106 9.326C53.61 70.845 61.26 62 62.12 51.891c-1.412.321-2.899.513-4.301.588-2.921.158-5.298-.082-7.674-.321-2.376-.24-4.752-.48-7.673-.322-7.915.428-12.71 4.363-12.369 10.244" clip-rule="evenodd"/></svg>
